X: 4
T: The Rakes Of Mallow
R: polka
M: 2/4
L: 1/8
K: Gmaj
G2 B2 G2 B2 | G2 B2 cBAG | F2 A2 F2 A2 | F2 A2 BAGF |G2 B2 G2 B2 | G2 B2 d2 d2 | cBAG FGAB | G4 G2 z2 ||g2 fe d2 c2 | B2 c2 d4 | g2 fe d2 c2 | Bc d2 A4 |g2 fe d2 c2 | B2 c2 d4 | cBAG FGAB | G4 G2 z2 |]


Tune 85	Setting 12595

